X:73
T:Preston Hornpipe. JBu.73
O:England,South Yorkshire
S:Joshua Burnett’s MS,c1835,S.Yorkshire
M:C
L:1/8
Q:1/2=90
R:.hornpipe
Z:vmp.R.Greig.2011
K:D
A2|(de)fe (dA)FD|(GF)GA (BG)ED|(CD)EF (GE)DC|D2A2A2Bc|
(de)fe (dA)FD|(GF)GA (BG)ED|(CD)EF (GE)DC|D2D2D2:|
|:AG|(FA)DA (FA)dF|(GB)EB (GB)eG|(FA)DA (FA)dF|EDCB, A,2A2|
(FA)DA (FA)dF|(GB)EB (GB)eB|(cd)ef (ge)dc|d2d2d2:|

